X: 10752
T: THE ROSE POLKA
C: Composed by W.B. Laybourn
R: polka
B: K\"ohler's Violin Repository, v.1, 1885 p.75 #2
F: http://www.archive.org/details/klersviolinrepos01edin
Z: 2012 John Chambers <jc:trillian.mit.edu>
M: 2/4
L: 1/16
K: F
|:\
vc2AB d2c2 | f2cf a2f2 | b2ge (.d2.^c2) | =c2=B2_B2A2 |\
c2AB d2c2 | f2cf a2f2 | b2ge d2c2 | d2e2f2z2 :|
K: C
vg2(3ggg g2e2 | g2^f2=f2d2 | f2(3fff f2d2 | e2c2G2E2 |\
 g2(3ggg g2e2 | a2g2f2e2 | d2G2A2B2 | cBcd c_BAG "_D.C."|]

%%sep 2 1 500

